!!!!SEGMENT: pl-kk--kk-i-389--007-001_anonim--missa-no-7-rorate.krn
!!!cenid: 17xx:2499
!!!COM: Anonim
!!!COM-rismID: pe30004985
!!!CDT:
!!!CNT:
!!!OPR: [Missa] No. 7.
!!!OTL: Rorate
!!!OMV: 001
!!!PDT:
!!!AGN: Sacred; Mass
!!!YEC: Copyright 2022 Narodowy Instytut Fryderyka Chopina (https://polishscores.org)
!!!YEM: License CC-BY-4.0 (https://creativecommons.org/licenses/by/4.0)
!!!SMS-siglum: PL-Kk
!!!SMS-shelfmark: Kk.I.389
!!!SMS-variant:
!!!SMS-altvar:
!!!SMS-shelfwork: 007-001 M
!!!NIFC-rismSourceID: 1001146182
!!!NIFC-rismChildID: 1001147245
!!!NIFC-islandoraID: pl-kk:6976
!!!URL-pdf-islandora: https://repozytorium.nifc.pl/islandora/object/pl-kk%3A6976/datastream/PDF/view
!!!URL-scan: https://polish.musicsources.pl/pl/lokalizacje/galeria/rekopisy/5999/1 @EN{Scan on Polish Music Sources Website} @PL{Skany w portalu Dziedzictwo Muzyki Polskiej w otwartym dostępie}
!!!IIIF:
!!!ONB-nifc: UWAGA: S – skan 12-13, A – 31-32, T – 50-51, B – 69-70. Części Mszy: Rorate, Kyrie, Gloria, Graduale, Sanctus, Benedictus, Agnus.
!!!AIN: 1 alto 1 bass 1 soprn 1 tenor
!!!key: F
**kern	**text	**kern	**text	**kern	**text	**kern	**text
*part4	*part4	*part3	*part3	*part2	*part2	*part1	*part1
*staff4	*staff4	*staff3	*staff3	*staff2	*staff2	*staff1	*staff1
*Ibass	*	*Itenor	*	*Ialto	*	*Isoprn	*
*I"Basso.	*	*I"Tenore.	*	*I"Alto.	*	*I"Soprano.	*
*I'B	*	*I'T	*	*I'A	*	*I'S	*
*I'bass	*	*I'tenor	*	*I'alto	*	*I'soprn	*
*I'Cvox	*	*I'Cvox	*	*I'Cvox	*	*I'Cvox	*
*clefF4	*	*clefC4	*	*clefC3	*	*clefC1	*
*k[b-]	*	*k[b-]	*	*k[b-]	*	*k[b-]	*
*F:	*	*F:	*	*F:	*	*F:	*
*M2/2	*	*M2/2	*	*M2/2	*	*M2/2	*
*met(C.)	*	*met(C.)	*	*met(C.)	*	*met(C.)	*
=1	=1	=1	=1	=1	=1	=1	=1
*	*	*	*	*	*	*all\right global	*
!	!	!	!	!	!	!LO:TX:t=P:problem:znaki [B- b-]	!
4F\	Ro-	4A/	Ro-	4f\	Ro-	4cc\	Ro-
4G\	.	4G/	.	4e\	.	4b-\	.
4A\	.	4F/	.	4f\	-ra-	4a\	.
4B-\	.	4B-/	.	4f\	-te	4dd\	.
=2	=2	=2	=2	=2	=2	=2	=2
*2\right	*	*	*	*2\right	*	*2\right	*
!	!	!	!	!LO:SIC:v:s=coe-	!	!	!
2c\	-ra-	2G/	-ra-	2e\	ce-	2cc\	-ra-
4c\	-te	4G/	-te	4e\	-li	4cc\	-te
4B-\	ro-	4c\	Ro-	4e\	Ro-	4g\	ro-
=3	=3	=3	=3	=3	=3	=3	=3
4A\	-ra-	4F/	-ra-	2f\	-ra-	4a\	-ra-
4G\	.	4G/	.	.	.	4b-\	.
4F\	.	4A/	.	2f\	-te	2cc\	-te
4A\	-te	4F/	.	.	.	.	.
=4	=4	=4	=4	=4	=4	=4	=4
*	*	*2\right	*	*	*	*	*
!LO:SIC:v:s=coe-	!	!	!	!LO:SIC:v:s=coe-	!	!LO:SIC:v:s=coe-	!
2B-\	ce-	2B-\	.	4f\	ce-	2dd\	ce-
.	.	.	.	4f\	-li	.	.
2A\	-li	2c\	-te	[2f\	de-	2cc\	-li
=5	=5	=5	=5	=5	=5	=5	=5
!LO:SIC:v:s=coe-	!	!LO:SIC:v:s=coe-	!	!	!	!	!
2G\	ce-	2.G/	ce-	2f\]	.	2.b-\	de-
2C/	.	.	.	2e\	-su-	.	.
.	.	4G/	-li	.	.	4b-\	-su-
!LO:LB:g=original	!	!LO:LB:g=original	!	!	!	!	!
=6	=6	=6	=6	=6	=6	=6	=6
!	!	!LO:SIC:v:s=coe-	!	!	!	!	!
2F\	.	2A\	ce-	2f\	-per	2a\	-per
2E\	-li	2c\	-li	2g\	de-	[2cc\	de-
=7	=7	=7	=7	=7	=7	=7	=7
2.D\	de-	2A\	de-	2.f\	.	2cc\]	.
.	.	2F/	-su-	.	.	2bn\	-su-
4D\	-su-	.	.	4f\	-su-	.	.
!	!	!	!	!LO:LB:g=original	!	!LO:LB:g=original	!
=8	=8	=8	=8	=8	=8	=8	=8
2C/	-per	2G/	-per,	2e\	-per,	2cc\	-per,
2F\	et	2f\	et	2r	.	2r	.
=9	=9	=9	=9	=9	=9	=9	=9
4c\	nu-	4e\	nu-	2r	.	2r	.
4d\	.	4f\	.	.	.	.	.
4c\	-bes	4e\	-bes	2g\	et	2cc\	et
4B-\	.	4d\	.	.	.	.	.
=10	=10	=10	=10	=10	=10	=10	=10
2A\	plu-	2c\	plu-	4a\	nu-	4ff\	nu-
.	.	.	.	4b-\	.	4gg\	.
2A\	-ant	2c\	-ant	4a\	-bes	4ff\	-bes
.	.	.	.	4g\	.	4een\	.
=11	=11	=11	=11	=11	=11	=11	=11
4B-\	nu-	4d\	nu-	2f\	plu-	2dd\	plu-
4c\	.	4e\	.	.	.	.	.
4B-\	-bes	4d\	-bes	2f\	-ant	2dd\	-ant
4A\	.	4c\	.	.	.	.	.
=12	=12	=12	=12	=12	=12	=12	=12
2G\	plu-	2Bn\	plu-	4g\	nu-	4ee\	nu-
.	.	.	.	4a\	.	4ff\	.
2G\	-ant	2B\	-ant	4g\	-bes	4ee\	-bes
.	.	.	.	4f\	.	4dd\	.
=13	=13	=13	=13	=13	=13	=13	=13
4A\	nu-	4c\	nu-	2e\	plu-	2cc\	plu-
4B-\	.	4d\	.	.	.	.	.
4A\	-bes	4c\	-bes	2e\	-ant	2cc\	-ant
4G\	.	4B-\	.	.	.	.	.
!LO:LB:g=original	!	!	!	!	!	!	!
=14	=14	=14	=14	=14	=14	=14	=14
2F\	plu-	4A\	plu-	2f\	nu-	2dd\	nu-
.	.	4Bn\	.	.	.	.	.
!	!	!LO:LB:g=original	!	!	!	!	!
2E\	-ant	2c#X\	-ant	2g\	-bes	2ee\	-bes
=15	=15	=15	=15	=15	=15	=15	=15
4D\	plu-	4d\	ju-	4f\	plu-	4a\	plu-
4G\	-ant	2d\	.	4e\	-ant	4b-\	-ant
2A\	ju-	.	.	2e\	ju-	2a\	ju-
.	.	4c#X\	.	.	.	.	.
=16	=16	=16	=16	=16	=16	=16	=16
2D\	-stum	2d\	-stum	2f#X\	-stum	2a\	-stum
2F\	ju-	2A\	ju-	2a\	ju-	2cc\	ju-
!	!	!	!	!LO:LB:g=original	!	!	!
=17	=17	=17	=17	=17	=17	=17	=17
2F\	.	1B-X	.	1g	.	2dd\	.
2E\	.	.	.	.	.	2ee\	.
=18	=18	=18	=18	=18	=18	=18	=18
!	!	!	!	!LO:SIC:v:s=2f	!	!	!
2F\	-stum,	2A\	-stum	2f#X\	-stum,	2cc\	-stum,
2r	.	2r	.	2r	.	2cc\	a-
=19	=19	=19	=19	=19	=19	=19	=19
2r	.	2r	.	2r	.	4ff\	-pe-
.	.	.	.	.	.	4ee\	-ri-
2F\	a-	2A\	a-	2f\	a-	4dd\	-a-
.	.	.	.	.	.	4cc\	-tur
=20	=20	=20	=20	=20	=20	=20	=20
4B-\	-pe-	4d\	-pe-	4f\	-pe-	2b-\	a-
4A\	-ri-	4c\	-ri-	4f\	-ri-	.	.
4G\	-a-	4B-X\	-a-	4g\	-a-	4b-\	-pe-
4F\	-tur	4A\	-tur	4a\	-tur	4cc\	-ri-
=21	=21	=21	=21	=21	=21	=21	=21
2E\	ter-	2c\	ter-	2g\	ter-	2cc\	-a-
4F\	-ra	4c\	-ra	4a\	-ra,	4ff\	-tur
4F\	a-	4c\	a-	4a\	a-	4ff\	a-
=22	=22	=22	=22	=22	=22	=22	=22
4G\	-pe-	4B-X\	-pe-	4g\	-pe-	4ee-X\	-pe-
4G\	-ri-	4B-\	-ri-	4g\	-ri-	4ee-\	-ri-
4A\	-a-	4A\	-a-	4f\	-a-	4ee-\	-a-
4A\	-tur	4A\	-tur	4f\	-tur	4ee-\	-tur
!	!	!LO:LB:g=original	!	!	!	!	!
=23	=23	=23	=23	=23	=23	=23	=23
2B-\	ter-	2F/	ter-	1f	ter-	1dd	ter-
2D\	-ra	[2B-X\	.	.	.	.	.
=24	=24	=24	=24	=24	=24	=24	=24
2E-X\	ter-	2B-\]	.	2g\	.	1cc	.
2F\	.	2A\	.	2f\	.	.	.
=25	=25	=25	=25	=25	=25	=25	=25
2BB-/	-ra.	2B-\	-ra,	2f\	-ra,	2dd\	-ra,
2r	.	2f\	et	2r	.	2r	.
!	!	!	!	!LO:LB:g=original	!	!	!
=26	=26	=26	=26	=26	=26	=26	=26
!LO:TX:a:t=2	!	!	!	!	!	!LO:TX:a:t=1.	!
0r	.	4d\	ger-	2r	.	1r	.
.	.	4c\	.	.	.	.	.
.	.	4B-\	.	2b-\	et	.	.
.	.	4d\	.	.	.	.	.
=27-	=27	=27	=27	=27	=27	=27	=27
.	.	4c\	.	4a\	ger-	2r	.
.	.	4c\	-mi-	4g\	.	.	.
.	.	4c\	-net,	4f\	.	2ff\	et
.	.	4c\	et	4a\	.	.	.
=28	=28	=28	=28	=28	=28	=28	=28
2r	.	4B-\	ger-	4b-\	.	4dd\	ger-
.	.	4B-\	-mi-	8a\L	-mi-	4cc\	.
.	.	.	.	8g\J	.	.	.
2B-\	et	2B-\	-net,	4f\	-net,	4b-\	.
.	.	.	.	4f\	et	4dd\	.
=29	=29	=29	=29	=29	=29	=29	=29
4A\	ger-	4c\	ger-	4f\	ger-	4cc\	.
4G\	.	4B-\	.	4g\	.	4cc\	-mi-
4F\	.	4A\	.	2f\	.	4cc\	-net,
4A\	.	4c\	.	.	.	4cc\	et
=30	=30	=30	=30	=30	=30	=30	=30
4B-\	.	4d\	.	4f\	.	4b-\	ger-
4B-\	-mi-	4d\	-mi-	4f\	-mi-	4b-\	-mi-
4F\	-net	4c\	-net,	4f\	-net,	4a\	-net
4F\	et	4c\	et	4f\	et	4a\	et
!	!	!LO:PB:g=original	!	!	!	!	!
=31	=31	=31	=31	=31	=31	=31	=31
4G\	ger-	4B-\	ger-	4en\	ger-	4b-\	ger-
4G\	-mi-	4B-\	-mi-	4e\	-mi-	4b-\	-mi-
2F\	-net	2A\	-net	2f\	-net	2cc\	-net
!LO:LB:g=original	!	!	!	!	!	!	!
=32	=32	=32	=32	=32	=32	=32	=32
2A\	sal-	4A\	Sal-	4f\	Sal-	2cc\	sal-
.	.	4c\	.	4a\	.	.	.
2B-\	-va-	4B-\	-va-	4g\	.	2dd\	-va-
.	.	4A\	.	4f\	-va-	.	.
!	!	!	!	!LO:PB:g=original	!	!	!
=33	=33	=33	=33	=33	=33	=33	=33
2c\	-to-	1G	-to-	2f\	-to-	1cc	-to-
2C/	.	.	.	2e\	.	.	.
=34	=34	=34	=34	=34	=34	=34	=34
2F\	-rem,	2A\	-rem,	2f\	-rem,	2cc\	-rem,
2F\	et	2r	.	2r	.	2r	.
=35	=35	=35	=35	=35	=35	=35	=35
!	!	!LO:TX:a:t=2	!	!LO:TX:a:t=1.	!	!	!
4D/	ger-	0r	.	1r	.	2r	.
4C/	.	.	.	.	.	.	.
4BB-/	.	.	.	.	.	2b-\	et
4D/	.	.	.	.	.	.	.
=36	=36	=36-	=36	=36	=36	=36	=36
4F\	.	.	.	2r	.	4a\	ger-
4F\	-mi-	.	.	.	.	4g\	.
4F\	-net	.	.	2f\	et	4f\	.
4r	.	.	.	.	.	4a\	.
=37	=37	=37	=37	=37	=37	=37	=37
!LO:TX:a:t=2	!	!	!	!	!	!	!
0r	.	2r	.	4d\	ger-	4b-\	.
.	.	.	.	4c\	.	4b-\	-mi-
.	.	2B-\	et	4B-\	.	4dd\	-net,
.	.	.	.	4d\	.	4dd\	et
=38-	=38	=38	=38	=38	=38	=38	=38
.	.	4A/	ger-	4f\	.	4cc\	ger-
.	.	4G/	.	4f\	-mi-	4b-\	.
.	.	4F/	.	4f\	-net,	4a\	.
.	.	4A/	.	4f\	et	4cc\	.
=39	=39	=39	=39	=39	=39	=39	=39
2r	.	4B-\	.	4f\	ger-	4dd\	.
.	.	4B-\	-mi-	4f\	-mi-	4dd\	-mi-
2B-\	et	4B-\	-net,	2f\	-net,	2dd\	-net,
.	.	4d\	et	.	.	.	.
!	!	!LO:LB:g=original	!	!	!	!	!
=40	=40	=40	=40	=40	=40	=40	=40
4A\	ger-	4c\	ger-	1f	ger-	2r	.
4G\	.	4B-\	.	.	.	.	.
4F\	.	4A\	.	.	.	2cc\	et
4A\	.	4c\	.	.	.	.	.
!LO:LB:g=original	!	!	!	!	!	!	!
=41	=41	=41	=41	=41	=41	=41	=41
4B-\	.	4B-\	.	4f\	-mi-	4dd\	ger-
4B-\	-mi-	4B-\	-mi-	4f\	-net	4dd\	-mi-
2F\	-net	2c\	-net	2a\	et	2cc\	-net
!	!	!	!	!LO:LB:g=original	!	!	!
=42	=42	=42	=42	=42	=42	=42	=42
2G\	sal-	2B-\	Sal-	2b-\	Sal-	2ee-X\	sal-
2F\	.	2d\	-va-	2a\	.	2dd\	-va-
=43	=43	=43	=43	=43	=43	=43	=43
2E-X\	.	2G/	-to-	2g\	-va-	2cc\	-to-
2D\	-va-	2B-\	.	2f\	.	[2b-\	.
=44	=44	=44	=44	=44	=44	=44	=44
2C/	-to-	1c	.	1e-X	-to-	2b-\]	.
2F\	.	.	.	.	.	2a\	.
=45	=45	=45	=45	=45	=45	=45	=45
2BB-/	-rem,	2B-\	-rem	2d\	.	2b-\	-rem,
2B-\	et	2d\	et	2f\	.	2b-\	et
=46	=46	=46	=46	=46	=46	=46	=46
2B-\	ger-	2en\	ger-	2g\	.	1cc	ger-
2A\	.	[2f\	.	2a\	.	.	.
=47	=47	=47	=47	=47	=47	=47	=47
2.G\	.	2f\]	.	2d\	-rem,	2.b-\	.
.	.	2e\	-mi-	4g\	ger-	.	.
4G\	-mi-	.	.	4g\	-mi-	4b-\	-mi-
=48	=48	=48	=48	=48	=48	=48	=48
2F\	-net	2f\	-net,	2a\	-net	2cc\	-net
4A\	sal-	4c\	Sal-	4a\	Sal-	4ff\	Sal-
4B-\	-va-	4d\	-va-	4f\	-va-	4ff\	-va-
!LO:PB:g=original	!	!LO:LB:g=original	!	!	!	!	!
=49	=49	=49	=49	=49	=49	=49	=49
2c\	-to-	2e\	-to-	1a	-to-	2ee\	-to-
2d\	.	[2f\	.	.	.	[2dd\	.
=50	=50	=50	=50	=50	=50	=50	=50
2B-\	.	2f\]	.	1g	.	2dd\]	.
2c\	.	[2e\	.	.	.	[2cc\	.
=51	=51	=51	=51	=51	=51	=51	=51
2A\	.	2e\]	.	1f	.	2cc\]	.
2B-\	.	[2d\	.	.	.	[2b-\	.
=52	=52	=52	=52	=52	=52	=52	=52
2G\	.	2d\]	.	1e	.	2b-\]	.
2A\	.	2c#X\	.	.	.	2a\	.
!	!	!	!	!LO:LB:g=original	!	!	!
=53	=53	=53	=53	=53	=53	=53	=53
2D\	-rem	2d\	-rem,	2f\	-rem,	2a\	-rem
2BBn/	Sal-	2f\	Sal-	2g\	Sal-	[2dd\	Sal-
=54	=54	=54	=54	=54	=54	=54	=54
1C	.	1e	-va-	1g	.	2dd\]	.
.	.	.	.	.	.	2cc\	-va-
=55	=55	=55	=55	=55	=55	=55	=55
!	!	!	!	!	!	!LO:TX:t=P:problem:brak kreski taktowej	!
1D	-va-	0f	.	[y1g	.	[1bn	-to-
=56	=56	=56-	=56	=56	=56	=56	=56
!	!	!	!	!LO:N:xstem:cue	!	!	!
1D	-to-	.	.	2g\]	.	1b]	.
.	.	.	.	2g\	-va-	.	.
=57	=57	=57	=57	=57	=57	=57	=57
!	!	!	!	!	!	!LO:TX:t=P:problem:brak kreski taktowej	!
0C	.	2e\	-to-	2g\	-to-	[1cc	.
.	.	[2f\	.	2a\	.	.	.
=58-	=58	=58	=58	=58	=58	=58	=58
.	.	2f\]	.	1g	.	1cc]	.
.	.	2e\	.	.	.	.	.
=59	=59	=59	=59	=59	=59	=59	=59
!	!	!	!	!	!	!LO:TX:t=P:problem:brak kreski taktowej	!
0FF	-rem.	0f	-rem.	0f	-rem.	0cc	-rem.
==	==	==	==	==	==	==	==
*-	*-	*-	*-	*-	*-	*-	*-
!!!system-decoration: [(s1,s2,s3,s4)]
!!!ENC: Anastazja Marusiak
!!!END: 2023-11-09
!!!YEM: Copyright © 2023 by [Copyright Holder]
!!!ENC: Leszek Kubiak
!!!END: 2024-01-10
